X:199
T: Húzzad cigány mindaddig...
M:4/4
L:1/8
K:Bb
dcee dd c2 | ddcc ed c2 |
ce fe/d/ dcBc | c2<G2 G2 z2 |
AFFA cc B | AFFA B2 z2 |
AFFA cGcc | c2<G2 G2 z |


